X: 38878
T: Sunny Banks, The
R: reel
M: 4/4
K: Dmajor
AFF2 d2cA|(3Bcd AF G3B|AFF2 d2cA|(3Bcd AF DEFB|
AFF2 d2cA|(3Bcd AF G3B|AFF2 d2cA|(3Bcd AF D3g||
fded cAA2|fdef g2ag|fded cAA2|(3Bcd AF D3g|
fded cAA2|fdef g2ag|fded cAA2|(3Bcd AF D3B||

